icon-themes/elementary_svg/cmd/sc_ruler.svg

<svg height="16" width="16" xmlns="http://www.w3.org/2000/svg" xmlns:xlink="http://www.w3.org/1999/xlink"><linearGradient id="a" gradientTransform="matrix(.49985451 0 0 .87729351 -186.69407 -29.012618)" gradientUnits="userSpaceOnUse" x1="385" x2="385" y1="8" y2="33"><stop offset="0" stop-color="#e7d198"/><stop offset="1" stop-color="#ba964a"/></linearGradient><linearGradient id="b" gradientTransform="matrix(.33333336 0 0 .86363639 -122.66669 -28.704545)" gradientUnits="userSpaceOnUse" x1="384" x2="384" y1="9" y2="32"><stop offset="0" stop-color="#fff"/><stop offset="1" stop-color="#fff" stop-opacity="0"/></linearGradient><path d="m3 1c2.2915074 0 9.999988.0008904 9.999988.0008904l.000012 13.9991096s-6.6666668 0-10 0c0-4.666666 0-9.3333336 0-14z" fill="#e9e9e9"/><path d="m12.5 14.5h-9.0000001v-13h9.0000001z" fill="none" stroke="#fff" stroke-linecap="round"/><path d="m2.4999621.49997396c2.5206756 0 11.0000629.000954 11.0000629.000954l.000013 14.99909804s-7.3333841 0-11.000076 0c0-5.000017 0-10.000035 0-15.00005204z" fill="none" stroke="#8c8c8c" stroke-linejoin="round" stroke-width=".999922"/><path d="m3.500582-15.499422h3.998836v14.998836h-3.998836z" fill="url(#a)" stroke="#956e37" stroke-linejoin="round" stroke-width="1.001164" transform="rotate(90)"/><path d="m4.5-14.45963h2v12.959627h-2z" fill="none" opacity=".4" stroke="url(#b)" transform="rotate(90)"/><g fill="#956e37"><path d="m3 4h1v2h-1z"/><path d="m6 4h1v2h-1z"/><path d="m9 4h1v2h-1z"/><path d="m12 4h1v2h-1z"/></g></svg>

<?xml version="1.0" encoding="UTF-8" standalone="no"?>
<svg
   xmlns:dc="http://purl.org/dc/elements/1.1/"
   xmlns:cc="http://creativecommons.org/ns#"
   xmlns:rdf="http://www.w3.org/1999/02/22-rdf-syntax-ns#"
   xmlns:svg="http://www.w3.org/2000/svg"
   xmlns="http://www.w3.org/2000/svg"
   xmlns:xlink="http://www.w3.org/1999/xlink"
   xmlns:sodipodi="http://sodipodi.sourceforge.net/DTD/sodipodi-0.dtd"
   xmlns:inkscape="http://www.inkscape.org/namespaces/inkscape"
   id="svg3942"
   height="16"
   width="16"
   version="1.1"
   sodipodi:docname="sc_ruler.svg"
   inkscape:export-filename="/home/rizmut/Dokumen/Rizmut/Github/libreoffice-style-elementary/images_elementary/cmd/sc_ruler.png"
   inkscape:export-xdpi="96"
   inkscape:export-ydpi="96"
   inkscape:version="0.92.3 (unknown)">
  <sodipodi:namedview
     pagecolor="#ffffff"
     bordercolor="#666666"
     borderopacity="1"
     objecttolerance="10"
     gridtolerance="10"
     guidetolerance="10"
     inkscape:pageopacity="0"
     inkscape:pageshadow="2"
     inkscape:window-width="1366"
     inkscape:window-height="706"
     id="namedview23"
     showgrid="false"
     inkscape:zoom="5.2149125"
     inkscape:cx="-21.632739"
     inkscape:cy="3.1383179"
     inkscape:window-x="0"
     inkscape:window-y="0"
     inkscape:window-maximized="1"
     inkscape:current-layer="svg3942" />
  <defs
     id="defs3944">
    <linearGradient
       gradientTransform="matrix(0.25378586,0,0,0.30501865,19.128979,-0.68547704)"
       gradientUnits="userSpaceOnUse"
       xlink:href="#linearGradient3104-9"
       id="linearGradient3092"
       y2="2.9062471"
       x2="-51.786404"
       y1="50.786446"
       x1="-51.786404" />
    <linearGradient
       id="linearGradient3104-9">
      <stop
         offset="0"
         style="stop-color:#000000;stop-opacity:0.33950618"
         id="stop3106-5" />
      <stop
         offset="1"
         style="stop-color:#000000;stop-opacity:0.24691358"
         id="stop3108-5" />
    </linearGradient>
    <linearGradient
       gradientTransform="matrix(0.24324324,0,0,0.35135133,2.1621636,-0.43242804)"
       gradientUnits="userSpaceOnUse"
       xlink:href="#linearGradient3977"
       id="linearGradient3095"
       y2="41.076912"
       x2="23.99999"
       y1="6.9230647"
       x1="23.99999" />
    <linearGradient
       id="linearGradient3977">
      <stop
         offset="0"
         style="stop-color:#ffffff;stop-opacity:1"
         id="stop3979" />
      <stop
         offset="0"
         style="stop-color:#ffffff;stop-opacity:0.23529412"
         id="stop3981" />
      <stop
         offset="1"
         style="stop-color:#ffffff;stop-opacity:0.15686275"
         id="stop3983" />
      <stop
         offset="1"
         style="stop-color:#ffffff;stop-opacity:0.39215687"
         id="stop3985" />
    </linearGradient>
    <linearGradient
       id="linearGradient3600">
      <stop
         offset="0"
         style="stop-color:#f4f4f4;stop-opacity:1"
         id="stop3602" />
      <stop
         offset="1"
         style="stop-color:#dbdbdb;stop-opacity:1"
         id="stop3604" />
    </linearGradient>
    <linearGradient
       gradientTransform="matrix(0.28571361,0,0,0.30419701,1.1428727,0.2326048)"
       gradientUnits="userSpaceOnUse"
       xlink:href="#linearGradient3600"
       id="linearGradient3940"
       y2="47.013336"
       x2="25.132275"
       y1="0.98520643"
       x1="25.132275" />
    <linearGradient
       id="a"
       gradientTransform="matrix(0.49985451,0,0,0.87729351,-186.69407,-29.012618)"
       gradientUnits="userSpaceOnUse"
       x1="385"
       x2="385"
       y1="8"
       y2="33">
      <stop
         offset="0"
         stop-color="#e7d198"
         id="stop2" />
      <stop
         offset="1"
         stop-color="#ba964a"
         id="stop4" />
    </linearGradient>
    <linearGradient
       id="b"
       gradientTransform="matrix(0.33333336,0,0,0.86363639,-122.66669,-28.704545)"
       gradientUnits="userSpaceOnUse"
       x1="384"
       x2="384"
       y1="9"
       y2="32">
      <stop
         offset="0"
         stop-color="#fff"
         id="stop7" />
      <stop
         offset="1"
         stop-color="#fff"
         stop-opacity="0"
         id="stop9" />
    </linearGradient>
  </defs>
  <metadata
     id="metadata3947">
    <rdf:RDF>
      <cc:Work
         rdf:about="">
        <dc:format>image/svg+xml</dc:format>
        <dc:type
           rdf:resource="http://purl.org/dc/dcmitype/StillImage" />
        <dc:title></dc:title>
      </cc:Work>
    </rdf:RDF>
  </metadata>
  <g
     id="g1960">
    <path
       style="display:inline;fill:url(#linearGradient3940);fill-opacity:1;stroke:none"
       id="path4160"
       d="m 3,1 c 2.2915074,0 9.999988,8.904e-4 9.999988,8.904e-4 L 13,15 C 13,15 6.3333332,15 3,15 3,10.333334 3,5.6666664 3,1 Z" />
    <path
       style="fill:none;stroke:url(#linearGradient3095);stroke-width:1;stroke-linecap:round;stroke-linejoin:miter;stroke-miterlimit:4;stroke-dasharray:none;stroke-dashoffset:0;stroke-opacity:1"
       id="rect6741-1"
       d="M 12.5,14.5 H 3.4999999 V 1.5 H 12.5 Z" />
    <path
       style="display:inline;fill:none;stroke:url(#linearGradient3092);stroke-width:0.99992192;stroke-linecap:butt;stroke-linejoin:round;stroke-miterlimit:4;stroke-dasharray:none;stroke-dashoffset:0;stroke-opacity:1"
       id="path4160-8"
       d="m 2.4999621,0.49997396 c 2.5206756,0 11.0000629,9.54e-4 11.0000629,9.54e-4 l 1.3e-5,14.99909804 c 0,0 -7.3333841,0 -11.000076,0 0,-5.000017 0,-10.000035 10e-8,-15.00005204 z" />
  </g>
  <g
     id="g883">
    <path
       style="fill:url(#a);stroke:#956e37;stroke-width:1.00116396;stroke-linejoin:round"
       inkscape:connector-curvature="0"
       id="path18"
       transform="rotate(90)"
       d="M 3.500582,-15.499422 H 7.499418 V -0.500586 H 3.500582 Z" />
    <path
       style="opacity:0.4;fill:none;stroke:url(#b)"
       inkscape:connector-curvature="0"
       id="path20"
       transform="rotate(90)"
       d="m 4.5,-14.45963 h 2 v 12.959627 h -2 z" />
    <g
       style="fill:#956e37"
       id="g30">
      <path
         inkscape:connector-curvature="0"
         id="path22"
         d="M 3,4 H 4 V 6 H 3 Z" />
      <path
         inkscape:connector-curvature="0"
         id="path24"
         d="M 6,4 H 7 V 6 H 6 Z" />
      <path
         inkscape:connector-curvature="0"
         id="path26"
         d="m 9,4 h 1 V 6 H 9 Z" />
      <path
         inkscape:connector-curvature="0"
         id="path28"
         d="m 12,4 h 1 v 2 h -1 z" />
    </g>
  </g>
</svg>
